X:1
T:Title
%%score { ( 1 3 5 ) | ( 2 4 6 ) }
L:1/8
M:4/4
K:C
V:1 treble nm="Grand Piano"
V:3 treble 
V:5 treble 
V:2 bass 
V:4 bass 
V:6 bass 
V:1
 z4 z[Q:1/4=94] G ^F>G | c6 z2 | B6 z2 | z z/ [B,D]/ [B,D]>[B,D] [B,D]>A G>D | E6 z2 | c6 z2 | %6
 d6 z2 | z2 E>E z z/ c/ B>d |[M:5/8] [Ec]-[Ec]- [Ec]3 |[M:3/8] z3 | %10
[M:4/4] z z/ [DF]/ [DF]>[DF] [DF]>B A>E | z z/ E/ E>E E>c B>c | d6 z2 | e6 z2 | %14
 z z/ F/ F>F F>d e>d | z z/ E/ E>E E2 c>B | A6 z2 | %17
[M:11/16] [Ec]/-[Ec]/-[Ec]/-[Ec]/-[Ec]/-[Ec]/-[Ec]/-[Ec]-<[Ec] |] %18
V:2
 z8 | z z/ [C,G,]/ [C,G,]>[C,G,] [C,G,]2 z2 | D>G,, G,,>G,, G,,>[K:treble]A F>E | F6[K:bass] z2 | %4
 z z/ [C,G,]/ [C,G,]>[C,G,] [C,G,]2 z2 | z z/ [C,G,]/ [C,G,]>[C,G,] [C,G,]2 z2 | %6
 z z/ [F,A,]/ [F,A,]>[F,A,] [F,A,]2 z2 | z2[K:treble] [G,C]>[G,C] [G,C]2 [G,DF]>[G,F] | %8
[M:5/8][K:bass] [C,G,]-[C,G,]- [C,G,]3 |[M:3/8][K:treble] cB>F |[M:4/4] B6[K:bass] z2 | %11
 z z/ [C,C]/ [C,C]>[C,C] [C,C]2 z2 | z z/ [G,B,]/ [G,B,]>[G,B,] [G,B,]2 z2 | %13
 z z/ [C,C]/ [C,C]>[C,C] [C,C]2 z2 | z z/ [F,C]/ [F,C]>[F,C] [F,C]2 z2 | %15
 z z/ [C,C]/ [C,C]>[C,C] [C,C]2 E>[K:treble]G | F6[K:bass] z2 | %17
[M:11/16] [C,G,]/-[C,G,]/-[C,G,]/-[C,G,]/-[C,G,]/-[C,G,]/-[C,G,]/-[C,G,]-<[C,G,] |] %18
V:3
 x8 | z z/ E/ E>E E>G F>G | z z/ [DF]/ [DF]>[DF] [DF]2 z2 | x8 | z z/ C/ C>C C>G ^F>G | %5
 z z/ E/ E>E E>e d>A | z z/ F/ F>F F2 c>A | G6 z2 |[M:5/8] x5 |[M:3/8] x3 |[M:4/4] x8 | G6 z2 | %12
 z z/ F/ F>F F>B c>d | z z/ G/ G>G G>e f>e | A6 z2 | G6 z2 | z2 C>C C>c B>d |[M:11/16] x11/2 |] %18
V:4
 x8 | x8 | x11/2[K:treble] x5/2 | z z/[K:bass] G,,/ G,,>G,, G,,2 z2 | x8 | x8 | x8 | %7
 x2[K:treble] x6 |[M:5/8][K:bass] x5 |[M:3/8][K:treble] x3 | %10
[M:4/4] z z/[K:bass] G,,/ G,,>G,, G,,2 z2 | x8 | x8 | x8 | x8 | x15/2[K:treble] x/ | %16
 z2[K:bass] F,>F, z z/ A,/ [G,D]>[G,F] |[M:11/16] x11/2 |] %18
V:5
 x8 | x8 | x8 | x8 | x8 | x8 | x8 | z4 E4 |[M:5/8] x5 |[M:3/8] x3 |[M:4/4] x8 | x8 | x8 | x8 | x8 | %15
 x8 | x8 |[M:11/16] x11/2 |] %18
V:6
 x8 | x8 | x11/2[K:treble] x5/2 | x3/2[K:bass] x13/2 | x8 | x8 | x8 | x2[K:treble] x6 | %8
[M:5/8][K:bass] x5 |[M:3/8][K:treble] x3 |[M:4/4] x3/2[K:bass] x13/2 | x8 | x8 | x8 | x8 | %15
 x15/2[K:treble] x/ | z4[K:bass] F,2 z2 |[M:11/16] x11/2 |] %18

